X: 1809
T: Pine Mt Lancers Fig 5
B: australian traditional tunes wiki
M:2/4
L:1/8
R: Set Tune
Q: 1/4=100
K:G
V:1 
D/D/|"G"DB BB|B2d/e/d/c/|cB BB|B3D|"D7"BA AA|A3 D|"G"cB BB|B3D/D/|
"G"DB BB|B2d/e/d/c/|cB BB|B3D|"D7"BA AA|A3A/A/|AF DF|"G"G4|
"C"E4|"D7"^FG AG|"Em"e4-|"Am"e2cA|"G7"G3B|B2AG|A2G2|"C"zC DE|
"C"G4|"D7"^FG AG|"Em"e4-|"Am"e2cA|"G7"G2B2|e2d2|"C"c2c>c|c2z||
% abcbook-tune_id 6342d53a6b004531be14ce95


% abcbook-boost 0
% abcbook-tablature 
% abcbook-transpose 
% abcbook-lastupdated 1665324385224
% abcbook-soundfonts 
% abcbook-repeats 1
% NFF Book 2018

